X:1
T:Belltable, The
R:waltz
C:Kieran Hanrahan and Maurice Lennon
Z:id:hn-waltz-1
M:3/4
K:D
d3 e d2|d2 c2 B2|A3 B A2|A2 G2 F2|G2 GA BG|A2 AB cA|G2 GA BG|A2 B2 c2|
d3 e d2|d2 c2 B2|A3 B A2|A2 G2 F2|G2 GA BG|A2 AB cA|G2 F2 E2|D6:|
|:a3 b a2|a4 g2|f3 g f2|f2 e2 f2|g3 a g2|g2 f2 g2|a3 b a2|a2 f2 g2|
a3 b a2|a4 g2|f3 g f2|f2 e2 d2|B3 d g2|f a3 c2|e d3 c2|1 d3 e fg:|2 d4 A2||

